X: 5351
T: Bubbling Wine
R: reel
M: 4/4
K: Edorian
A|:BE~E2 d2cd|BE~E2 ADFA|GBEF GBef|g2fg edBA|
B=cBA GBdB|A2^GB A=GFA|BE~E2 GBec|dBAd BE E:|
c|:Be~e2 gebe|Ad~d2 fdad|Beed efge|fgaf geef|
g2fg edBc|d2fe dBAF|BE~E2 GBec|dBAd BE E:|

